images/icons/medium.svg

<svg fill="none" height="24" viewBox="0 0 24 24" width="24" xmlns="http://www.w3.org/2000/svg"><g fill="#fff"><path d="m13.5374 12.0001c0 3.866-3.0305 6.9999-6.76856 6.9999-3.73811 0-6.76884-3.1339-6.76884-6.9999 0-3.86592 3.0305-7.0001 6.76884-7.0001 3.73836 0 6.76856 3.13418 6.76856 7.0001z"/><path d="m20.9628 12.0001c0 3.639-1.5152 6.5901-3.3844 6.5901s-3.3844-2.9511-3.3844-6.5901c0-3.63894 1.515-6.59007 3.3842-6.59007 1.8691 0 3.3844 2.95018 3.3844 6.59007"/><path d="m24 12.0001c0 3.2596-.5328 5.9037-1.1903 5.9037s-1.1901-2.6434-1.1901-5.9037c0-3.26031.5329-5.90366 1.1901-5.90366.6573 0 1.1903 2.64311 1.1903 5.90366z"/></g></svg>

<svg width="24" height="24" viewBox="0 0 24 24" fill="none" xmlns="http://www.w3.org/2000/svg">
<path d="M13.5374 12.0001C13.5374 15.8661 10.5069 19 6.76884 19C3.03073 19 0 15.8661 0 12.0001C0 8.13418 3.0305 5 6.76884 5C10.5072 5 13.5374 8.13418 13.5374 12.0001Z" fill="white"/>
<path d="M20.9628 12.0001C20.9628 15.6391 19.4476 18.5902 17.5784 18.5902C15.7092 18.5902 14.194 15.6391 14.194 12.0001C14.194 8.36116 15.709 5.41003 17.5782 5.41003C19.4473 5.41003 20.9626 8.36021 20.9626 12.0001" fill="white"/>
<path d="M24 12.0001C24 15.2597 23.4672 17.9038 22.8097 17.9038C22.1522 17.9038 21.6196 15.2604 21.6196 12.0001C21.6196 8.73979 22.1525 6.09644 22.8097 6.09644C23.467 6.09644 24 8.73955 24 12.0001Z" fill="white"/>
</svg>
